li/weather-barometer.svg

<svg role="img" focusable="false" aria-hidden="true" xmlns="http://www.w3.org/2000/svg" viewBox="0 0 14 14" height="1em" width="1em">
  <path d="m 1.994305,6.002278 c 0,-0.676538 0.1298405,-1.32574 0.3963554,-1.947608 C 2.6571752,3.432802 3.0125282,2.906606 3.4635533,2.462415 3.9145783,2.018223 4.447608,1.66287 5.062642,1.396355 5.677676,1.129841 6.326879,1 7.003417,1 c 0.676537,0 1.32574,0.129841 1.947608,0.396355 0.615034,0.266515 1.148064,0.621868 1.592255,1.06606 0.444191,0.444191 0.799544,0.977221 1.066059,1.592255 0.266515,0.615034 0.396356,1.264237 0.396356,1.947608 0,1.107061 -0.328019,2.091116 -0.984055,2.965831 -0.656037,0.867882 -1.503417,1.462415 -2.535308,1.783599 l 0,2.248292 -2.897494,0 0,-2.220957 C 4.536446,10.471526 3.6685647,9.876993 2.9988608,8.995444 2.3291569,8.113895 1.994305,7.116173 1.994305,6.002278 Z m 1.1002278,0 c 0,1.059225 0.3826879,1.968109 1.1548975,2.726651 0.7585417,0.765376 1.6742597,1.148064 2.7471527,1.148064 0.703872,0 1.359909,-0.170843 1.954442,-0.519362 0.601367,-0.348519 1.072893,-0.820046 1.428246,-1.414579 0.348519,-0.594533 0.526196,-1.243735 0.526196,-1.947608 0,-0.526196 -0.102506,-1.025057 -0.307517,-1.51025 C 10.392938,4 10.112756,3.589977 9.764237,3.241458 9.415717,2.892938 8.998861,2.612756 8.513667,2.407745 8.028474,2.202733 7.529613,2.100228 7.003417,2.100228 6.477221,2.100228 5.97836,2.202733 5.493166,2.407745 5.007972,2.612756 4.59795,2.892938 4.2494303,3.241458 3.9009109,3.589977 3.6207287,4.006834 3.4157173,4.485194 3.1970385,4.977221 3.0945328,5.476082 3.0945328,6.002278 Z m 0.3963553,0.246014 0,-0.492028 1.4829159,0 0,0.492028 -1.4829159,0 z M 4.2357629,3.829157 4.591116,3.473804 5.62984,4.512528 5.274487,4.874715 4.2357629,3.829157 Z M 5.964692,7.198178 c 0,-0.287016 0.102506,-0.53303 0.300684,-0.744875 C 6.463553,6.241458 6.709567,6.132118 6.989749,6.125285 l 1.865604,-3.068337 0.451025,0.23918 -1.38041,3.300683 c 0.123007,0.170843 0.177676,0.36902 0.177676,0.601367 0,0.300683 -0.102505,0.55353 -0.31435,0.758542 C 7.577449,8.161731 7.324601,8.264237 7.023918,8.264237 6.730068,8.264237 6.477221,8.161731 6.272209,7.95672 6.067198,7.751708 5.964692,7.498861 5.964692,7.198178 Z m 0.895217,-3.191344 0,-1.476082 0.471526,0 0,1.482915 -0.471526,0 z m 2.009111,2.234624 0,-0.505695 1.482916,0 0,0.505695 -1.482916,0 z"/>
</svg>

<svg aria-hidden="true" xmlns="http://www.w3.org/2000/svg" viewBox="0 0 14 14" height="1em" width="1em">
  <path d="M1.994 6.002c0-.676.13-1.325.397-1.947a4.916 4.916 0 0 1 1.073-1.593 5.2 5.2 0 0 1 1.599-1.066A4.835 4.835 0 0 1 7.003 1a4.9 4.9 0 0 1 1.948.396 5.087 5.087 0 0 1 1.592 1.066c.444.445.8.978 1.066 1.593.267.615.397 1.264.397 1.947a4.808 4.808 0 0 1-.984 2.966 4.953 4.953 0 0 1-2.536 1.784V13H5.59v-2.221A4.908 4.908 0 0 1 3 8.995a4.82 4.82 0 0 1-1.005-2.993Zm1.1 0c0 1.06.383 1.968 1.155 2.727.759.765 1.675 1.148 2.748 1.148.703 0 1.36-.17 1.954-.52a3.937 3.937 0 0 0 1.428-1.414 3.786 3.786 0 0 0 .526-1.948c0-.526-.102-1.025-.307-1.51a3.862 3.862 0 0 0-.834-1.244 3.893 3.893 0 0 0-1.25-.833 3.826 3.826 0 0 0-1.51-.308c-.527 0-1.026.103-1.51.308a3.862 3.862 0 0 0-2.078 2.077 3.663 3.663 0 0 0-.321 1.517Zm.397.246v-.492h1.483v.492H3.49zm.745-2.419.355-.355L5.63 4.513l-.356.362-1.038-1.046ZM5.965 7.2c0-.288.102-.534.3-.746a.997.997 0 0 1 .725-.328l1.865-3.068.451.24-1.38 3.3a.99.99 0 0 1 .178.601c0 .3-.103.554-.315.759a1.057 1.057 0 0 1-.765.307c-.294 0-.547-.102-.752-.307a1.03 1.03 0 0 1-.307-.759Zm.895-3.192V2.53h.471v1.483H6.86zM8.869 6.24v-.505h1.483v.505H8.869z"/>
</svg>
